X: 30710
T: Oriental, The
R: polka
M: 2/4
K: Gdorian
|:B>A- AG|B>A- AG|AG/A/ BA|GE _E2|
B>A- AG|B>A- AG|AG BA|G2 GA:|
K: Gmaj
|:B2 BA|GE ED|EA AG|BG A2|
B2 BA|GE ED|EA GA|G2 GA:|

